docs/public/images/landing/features-network.svg

<svg width="32" height="32" viewBox="0 0 32 32" fill="none" xmlns="http://www.w3.org/2000/svg">
<rect x="0.5" y="0.5" width="31" height="31" rx="5.5" fill="url(#paint0_linear_299_41547)" fill-opacity="0.2"/>
<rect x="0.5" y="0.5" width="31" height="31" rx="5.5" stroke="url(#paint1_linear_299_41547)"/>
<path d="M16 7.55469C14.393 7.55469 12.8221 8.03121 11.486 8.924C10.1498 9.81678 9.10844 11.0857 8.49348 12.5704C7.87852 14.055 7.71762 15.6887 8.03112 17.2648C8.34463 18.8409 9.11846 20.2886 10.2548 21.4249C11.3911 22.5612 12.8388 23.3351 14.4149 23.6486C15.991 23.9621 17.6247 23.8012 19.1093 23.1862C20.594 22.5712 21.8629 21.5298 22.7557 20.1937C23.6485 18.8575 24.125 17.2867 24.125 15.6797C24.1227 13.5255 23.266 11.4602 21.7427 9.93696C20.2195 8.41372 18.1542 7.55696 16 7.55469ZM13.9398 18.8047H18.0602C17.6406 20.2375 16.9375 21.5289 16 22.5461C15.0625 21.5289 14.3594 20.2375 13.9398 18.8047ZM13.6563 17.5547C13.449 16.3133 13.449 15.0461 13.6563 13.8047H18.3438C18.551 15.0461 18.551 16.3133 18.3438 17.5547H13.6563ZM9.125 15.6797C9.12446 15.0457 9.21202 14.4146 9.38516 13.8047H12.3898C12.2034 15.0477 12.2034 16.3116 12.3898 17.5547H9.38516C9.21202 16.9448 9.12446 16.3137 9.125 15.6797ZM18.0602 12.5547H13.9398C14.3594 11.1219 15.0625 9.83047 16 8.81328C16.9375 9.83047 17.6406 11.1219 18.0602 12.5547ZM19.6102 13.8047H22.6148C22.9617 15.0306 22.9617 16.3288 22.6148 17.5547H19.6102C19.7966 16.3116 19.7966 15.0477 19.6102 13.8047ZM22.1227 12.5547H19.3547C19.0357 11.2996 18.5001 10.1099 17.7719 9.03906C18.7022 9.28908 19.57 9.73103 20.3193 10.3365C21.0686 10.942 21.6829 11.6976 22.1227 12.5547ZM14.2281 9.03906C13.4999 10.1099 12.9643 11.2996 12.6453 12.5547H9.87735C10.3171 11.6976 10.9314 10.942 11.6807 10.3365C12.43 9.73103 13.2978 9.28908 14.2281 9.03906ZM9.87735 18.8047H12.6453C12.9643 20.0598 13.4999 21.2495 14.2281 22.3203C13.2978 22.0703 12.43 21.6283 11.6807 21.0229C10.9314 20.4174 10.3171 19.6618 9.87735 18.8047ZM17.7719 22.3203C18.5001 21.2495 19.0357 20.0598 19.3547 18.8047H22.1227C21.6829 19.6618 21.0686 20.4174 20.3193 21.0229C19.57 21.6283 18.7022 22.0703 17.7719 22.3203Z" fill="#00DC82"/>
<defs>
<linearGradient id="paint0_linear_299_41547" x1="16" y1="0" x2="16" y2="32" gradientUnits="userSpaceOnUse">
<stop stop-color="#00DC82"/>
<stop offset="1" stop-color="#00DC82" stop-opacity="0.1"/>
</linearGradient>
<linearGradient id="paint1_linear_299_41547" x1="16" y1="0" x2="16" y2="32" gradientUnits="userSpaceOnUse">
<stop stop-color="#00DC82"/>
<stop offset="1" stop-color="#00DC82" stop-opacity="0.1"/>
</linearGradient>
</defs>
</svg>

<svg xmlns="http://www.w3.org/2000/svg" width="32" height="32" fill="none"><rect width="31" height="31" x=".5" y=".5" fill="url(#a)" fill-opacity=".06" rx="5.5"/><rect width="31" height="31" x=".5" y=".5" stroke="url(#b)" rx="5.5"/><path fill="#00C16A" d="M16 7.5547a8.1248 8.1248 0 0 0-7.9689 9.7101 8.1247 8.1247 0 0 0 6.3838 6.3838 8.1247 8.1247 0 0 0 8.3408-3.4549 8.125 8.125 0 0 0 1.3693-4.514A8.1335 8.1335 0 0 0 16 7.5547Zm-2.0602 11.25h4.1204c-.4196 1.4328-1.1227 2.7242-2.0602 3.7414-.9375-1.0172-1.6406-2.3086-2.0602-3.7414Zm-.2835-1.25a11.3838 11.3838 0 0 1 0-3.75h4.6875a11.3892 11.3892 0 0 1 0 3.75h-4.6875Zm-4.5313-1.875a6.8448 6.8448 0 0 1 .2602-1.875h3.0046a12.6437 12.6437 0 0 0 0 3.75H9.3852a6.8448 6.8448 0 0 1-.2602-1.875Zm8.9352-3.125h-4.1204c.4196-1.4328 1.1227-2.7242 2.0602-3.7414.9375 1.0172 1.6406 2.3086 2.0602 3.7414Zm1.55 1.25h3.0046a6.8864 6.8864 0 0 1 0 3.75h-3.0046a12.6437 12.6437 0 0 0 0-3.75Zm2.5125-1.25h-2.768a11.1254 11.1254 0 0 0-1.5828-3.5156 6.9044 6.9044 0 0 1 4.3508 3.5156Zm-7.8946-3.5156a11.1254 11.1254 0 0 0-1.5828 3.5156h-2.768a6.904 6.904 0 0 1 4.3508-3.5156Zm-4.3507 9.7656h2.7679a11.1248 11.1248 0 0 0 1.5828 3.5156 6.904 6.904 0 0 1-4.3507-3.5156Zm7.8945 3.5156a11.1248 11.1248 0 0 0 1.5828-3.5156h2.768a6.9047 6.9047 0 0 1-4.3508 3.5156Z"/><defs><linearGradient id="a" x1="16" x2="16" y1="0" y2="32" gradientUnits="userSpaceOnUse"><stop stop-color="#00DC82"/><stop offset="1" stop-color="#00DC82" stop-opacity=".1"/></linearGradient><linearGradient id="b" x1="16" x2="16" y1="0" y2="32" gradientUnits="userSpaceOnUse"><stop stop-color="#00C16A"/><stop offset="1" stop-color="#00C16A" stop-opacity=".1"/></linearGradient></defs></svg>
